svgs/figma_mirror.svg

<svg width="192" height="192" viewBox="0 0 192 192" fill="none" xmlns="http://www.w3.org/2000/svg">
<path d="M96 22H120.5C123.717 22 126.903 22.6337 129.876 23.865C132.848 25.0962 135.549 26.9008 137.824 29.1759C140.099 31.4509 141.904 34.1518 143.135 37.1243C144.366 40.0967 145 43.2826 145 46.5C145 49.7174 144.366 52.9033 143.135 55.8757C141.904 58.8482 140.099 61.5491 137.824 63.8241C135.549 66.0992 132.848 67.9038 129.876 69.135C126.903 70.3663 123.717 71 120.5 71H96M96 22H71.5C68.2826 22 65.0967 22.6337 62.1243 23.865C59.1518 25.0962 56.4509 26.9008 54.1759 29.1759C51.9008 31.4509 50.0962 34.1518 48.865 37.1243C47.6337 40.0967 47 43.2826 47 46.5C47 49.7174 47.6337 52.9033 48.865 55.8757C50.0962 58.8482 51.9008 61.5491 54.1759 63.8241C56.4509 66.0992 59.1518 67.9038 62.1243 69.135C65.0967 70.3663 68.2826 71 71.5 71H96M96 22V46.5V71" stroke="black" stroke-width="12"/>
<path d="M47 95.5C47 101.998 49.5812 108.229 54.1759 112.824C58.7705 117.419 65.0022 120 71.5 120H96V71H71.5C65.0022 71 58.7705 73.5812 54.1759 78.1759C49.5812 82.7705 47 89.0022 47 95.5Z" stroke="black" stroke-width="12"/>
<circle cx="120.5" cy="95.5" r="24.5" stroke="black" stroke-width="12"/>
<path d="M57.8885 124.213C61.9175 121.466 66.6544 120 71.5 120H96V145C96 149.945 94.5631 154.778 91.871 158.889C89.1789 163 85.3525 166.205 80.8757 168.097C76.399 169.989 71.4728 170.484 66.7203 169.52C61.9678 168.555 57.6023 166.174 54.1759 162.678C50.7495 159.181 48.4161 154.727 47.4708 149.877C46.5254 145.028 47.0106 140.001 48.865 135.433C50.7193 130.865 53.8595 126.96 57.8885 124.213Z" stroke="black" stroke-width="12"/>
</svg>

<svg width="192" height="192" viewBox="0 0 192 192" fill="none" xmlns="http://www.w3.org/2000/svg"><path d="M96 22h24.5a24.504 24.504 0 0 1 22.635 15.124 24.504 24.504 0 0 1-5.311 26.7A24.501 24.501 0 0 1 120.5 71H96m0-49H71.5a24.498 24.498 0 0 0-22.635 33.876A24.498 24.498 0 0 0 71.5 71H96m0-49v49" stroke="#000" stroke-width="12"/><path d="M47 95.5A24.5 24.5 0 0 0 71.5 120H96V71H71.5A24.5 24.5 0 0 0 47 95.5Z" stroke="#000" stroke-width="12"/><circle cx="120.5" cy="95.5" r="24.5" stroke="#000" stroke-width="12"/><path d="M57.889 124.213A24.153 24.153 0 0 1 71.5 120H96v25c0 4.945-1.437 9.778-4.129 13.889a24.615 24.615 0 0 1-10.995 9.208 24.052 24.052 0 0 1-14.156 1.423 24.357 24.357 0 0 1-12.544-6.842 25.164 25.164 0 0 1-6.705-12.801 25.472 25.472 0 0 1 1.394-14.444 24.9 24.9 0 0 1 9.023-11.22Z" stroke="#000" stroke-width="12"/></svg>
